img/card7.svg

<svg width="61" height="91" viewBox="0 0 61 91" fill="none" xmlns="http://www.w3.org/2000/svg">
<rect x="0.392578" y="0.0498047" width="60.057" height="90.0855" rx="4.61977" fill="white"/>
<mask id="mask0_1592_9465" style="mask-type:alpha" maskUnits="userSpaceOnUse" x="1" y="1" width="58" height="87">
<path d="M11.2824 2.3597H53.5203C55.7528 2.3597 57.5626 4.1695 57.5626 6.402L57.5625 70.3449C57.5625 71.707 56.4583 72.8112 55.0962 72.8112C53.5609 72.8112 52.1925 73.7794 51.6815 75.2272L49.4244 81.6224C49.0486 82.687 49.3875 83.8729 50.2691 84.5782C51.3757 85.4635 50.7497 87.248 49.3326 87.248H6.32024C4.03624 87.248 2.20584 85.3571 2.28008 83.0743L4.3241 20.222C4.37573 18.6343 5.67773 17.374 7.26623 17.374C9.52984 17.374 11.3649 15.5389 11.3649 13.2753L11.3649 8.21691C11.3649 7.25616 10.9125 6.35148 10.1439 5.77503C8.68518 4.68097 9.45894 2.3597 11.2824 2.3597Z" fill="#C4C4C4" stroke="black" stroke-width="1.15494"/>
</mask>
<g mask="url(#mask0_1592_9465)">
<rect x="6.1678" y="5.24715" width="49.6625" height="79.691" rx="4.0423" stroke="black" stroke-width="1.15494"/>
</g>
<path d="M16.6963 19.6839H11.8157C13.7571 18.5462 14.1011 17.6245 14.256 15.8054L11.0023 17.3568C9.22266 16.1671 9.12927 15.4889 11.0023 14.254L14.256 15.8054L12.629 11.9269C13.6595 9.91289 14.6625 9.98775 15.8828 11.9269L14.256 15.8054L17.9165 14.254C19.3434 15.4658 19.0275 16.145 17.9165 17.3568L14.256 15.8054C14.5519 17.6248 14.9741 18.5255 16.6963 19.6839Z" fill="black"/>
<path d="M14.256 15.8054C14.1011 17.6245 13.7571 18.5462 11.8157 19.6839H16.6963C14.9741 18.5255 14.5519 17.6248 14.256 15.8054ZM14.256 15.8054L11.0023 17.3568C9.22266 16.1671 9.12927 15.4889 11.0023 14.254L14.256 15.8054ZM14.256 15.8054L15.8828 11.9269C14.6625 9.98775 13.6595 9.91289 12.629 11.9269L14.256 15.8054ZM14.256 15.8054L17.9165 14.254C19.3434 15.4658 19.0275 16.145 17.9165 17.3568L14.256 15.8054Z" stroke="black" stroke-width="1.15494"/>
<path d="M40.4093 60.1068L44.6799 60.1068C42.9811 61.1022 42.6801 61.9087 42.5446 63.5005L45.3916 62.143C46.9488 63.184 47.0305 63.7775 45.3916 64.858L42.5446 63.5005L43.9682 66.8941C43.0665 68.6564 42.1889 68.5909 41.1212 66.8941L42.5446 63.5005L39.3417 64.858C38.0932 63.7976 38.3695 63.2034 39.3417 62.143L42.5446 63.5005C42.2857 61.9085 41.9163 61.1204 40.4093 60.1068Z" fill="black"/>
<path d="M42.5446 63.5005C42.6801 61.9087 42.9811 61.1022 44.6799 60.1068L40.4093 60.1068C41.9163 61.1204 42.2857 61.9085 42.5446 63.5005ZM42.5446 63.5005L45.3916 62.143C46.9488 63.184 47.0305 63.7775 45.3916 64.858L42.5446 63.5005ZM42.5446 63.5005L41.1212 66.8941C42.1889 68.5909 43.0665 68.6564 43.9682 66.8941L42.5446 63.5005ZM42.5446 63.5005L39.3417 64.858C38.0932 63.7976 38.3695 63.2034 39.3417 62.143L42.5446 63.5005Z" stroke="black" stroke-width="1.15494"/>
<path d="M21.5877 60.1068L17.3172 60.1068C19.0159 61.1022 19.3169 61.9087 19.4525 63.5005L16.6055 62.143C15.0483 63.184 14.9666 63.7775 16.6055 64.858L19.4525 63.5005L18.0289 66.8941C18.9305 68.6564 19.8081 68.5909 20.8759 66.8941L19.4525 63.5005L22.6554 64.858C23.9039 63.7976 23.6276 63.2034 22.6554 62.143L19.4525 63.5005C19.7114 61.9085 20.0808 61.1204 21.5877 60.1068Z" fill="black"/>
<path d="M19.4525 63.5005C19.3169 61.9087 19.0159 61.1022 17.3172 60.1068L21.5877 60.1068C20.0808 61.1204 19.7114 61.9085 19.4525 63.5005ZM19.4525 63.5005L16.6055 62.143C15.0483 63.184 14.9666 63.7775 16.6055 64.858L19.4525 63.5005ZM19.4525 63.5005L20.8759 66.8941C19.8081 68.5909 18.9305 68.6564 18.0289 66.8941L19.4525 63.5005ZM19.4525 63.5005L22.6554 64.858C23.9039 63.7976 23.6276 63.2034 22.6554 62.143L19.4525 63.5005Z" stroke="black" stroke-width="1.15494"/>
<path d="M40.4093 41.6278L44.6799 41.6278C42.9811 42.6232 42.6801 43.4297 42.5446 45.0215L45.3916 43.664C46.9488 44.705 47.0305 45.2984 45.3916 46.379L42.5446 45.0215L43.9682 48.4151C43.0665 50.1774 42.1889 50.1119 41.1212 48.4151L42.5446 45.0215L39.3417 46.379C38.0932 45.3186 38.3695 44.7244 39.3417 43.664L42.5446 45.0215C42.2857 43.4295 41.9163 42.6413 40.4093 41.6278Z" fill="black"/>
<path d="M42.5446 45.0215C42.6801 43.4297 42.9811 42.6232 44.6799 41.6278L40.4093 41.6278C41.9163 42.6413 42.2857 43.4295 42.5446 45.0215ZM42.5446 45.0215L45.3916 43.664C46.9488 44.705 47.0305 45.2984 45.3916 46.379L42.5446 45.0215ZM42.5446 45.0215L41.1212 48.4151C42.1889 50.1119 43.0665 50.1774 43.9682 48.4151L42.5446 45.0215ZM42.5446 45.0215L39.3417 46.379C38.0932 45.3186 38.3695 44.7244 39.3417 43.664L42.5446 45.0215Z" stroke="black" stroke-width="1.15494"/>
<path d="M33.137 40.4728H28.8665C30.5652 39.4774 30.8663 38.6709 31.0018 37.0791L28.1548 38.4366C26.5976 37.3956 26.5159 36.8021 28.1548 35.7216L31.0018 37.0791L29.5782 33.6855C30.4799 31.9232 31.3574 31.9887 32.4252 33.6855L31.0018 37.0791L34.2047 35.7216C35.4532 36.782 35.1769 37.3762 34.2047 38.4366L31.0018 37.0791C31.2607 38.6711 31.6301 39.4592 33.137 40.4728Z" fill="black"/>
<path d="M31.0018 37.0791C30.8663 38.6709 30.5652 39.4774 28.8665 40.4728H33.137C31.6301 39.4592 31.2607 38.6711 31.0018 37.0791ZM31.0018 37.0791L28.1548 38.4366C26.5976 37.3956 26.5159 36.8021 28.1548 35.7216L31.0018 37.0791ZM31.0018 37.0791L32.4252 33.6855C31.3574 31.9887 30.4799 31.9232 29.5782 33.6855L31.0018 37.0791ZM31.0018 37.0791L34.2047 35.7216C35.4532 36.782 35.1769 37.3762 34.2047 38.4366L31.0018 37.0791Z" stroke="black" stroke-width="1.15494"/>
<path d="M21.5877 41.6278L17.3172 41.6278C19.0159 42.6232 19.3169 43.4297 19.4525 45.0215L16.6055 43.664C15.0483 44.705 14.9666 45.2984 16.6055 46.379L19.4525 45.0215L18.0289 48.4151C18.9305 50.1774 19.8081 50.1119 20.8759 48.4151L19.4525 45.0215L22.6554 46.379C23.9039 45.3186 23.6276 44.7244 22.6554 43.664L19.4525 45.0215C19.7114 43.4295 20.0808 42.6414 21.5877 41.6278Z" fill="black"/>
<path d="M19.4525 45.0215C19.3169 43.4297 19.0159 42.6232 17.3172 41.6278L21.5877 41.6278C20.0808 42.6414 19.7114 43.4295 19.4525 45.0215ZM19.4525 45.0215L16.6055 43.664C15.0483 44.705 14.9666 45.2984 16.6055 46.379L19.4525 45.0215ZM19.4525 45.0215L20.8759 48.4151C19.8081 50.1119 18.9305 50.1774 18.0289 48.4151L19.4525 45.0215ZM19.4525 45.0215L22.6554 46.379C23.9039 45.3186 23.6276 44.7244 22.6554 43.664L19.4525 45.0215Z" stroke="black" stroke-width="1.15494"/>
<path d="M21.5877 31.2333H17.3172C19.0159 30.2379 19.3169 29.4314 19.4525 27.8396L16.6055 29.1971C15.0483 28.1561 14.9666 27.5626 16.6055 26.4821L19.4525 27.8396L18.0289 24.446C18.9305 22.6837 19.8081 22.7492 20.8759 24.446L19.4525 27.8396L22.6554 26.4821C23.9039 27.5425 23.6275 28.1367 22.6554 29.1971L19.4525 27.8396C19.7114 29.4316 20.0808 30.2197 21.5877 31.2333Z" fill="black"/>
<path d="M19.4525 27.8396C19.3169 29.4314 19.0159 30.2379 17.3172 31.2333H21.5877C20.0808 30.2197 19.7114 29.4316 19.4525 27.8396ZM19.4525 27.8396L16.6055 29.1971C15.0483 28.1561 14.9666 27.5626 16.6055 26.4821L19.4525 27.8396ZM19.4525 27.8396L20.8759 24.446C19.8081 22.7492 18.9305 22.6837 18.0289 24.446L19.4525 27.8396ZM19.4525 27.8396L22.6554 26.4821C23.9039 27.5425 23.6275 28.1367 22.6554 29.1971L19.4525 27.8396Z" stroke="black" stroke-width="1.15494"/>
<path d="M40.4093 31.2333H44.6799C42.9811 30.2379 42.6801 29.4314 42.5446 27.8396L45.3916 29.1971C46.9488 28.1561 47.0305 27.5626 45.3916 26.4821L42.5446 27.8396L43.9682 24.446C43.0665 22.6837 42.1889 22.7492 41.1212 24.446L42.5446 27.8396L39.3417 26.4821C38.0932 27.5425 38.3695 28.1367 39.3417 29.1971L42.5446 27.8396C42.2857 29.4316 41.9163 30.2197 40.4093 31.2333Z" fill="black"/>
<path d="M42.5446 27.8396C42.6801 29.4314 42.9811 30.2379 44.6799 31.2333H40.4093C41.9163 30.2197 42.2857 29.4316 42.5446 27.8396ZM42.5446 27.8396L45.3916 29.1971C46.9488 28.1561 47.0305 27.5626 45.3916 26.4821L42.5446 27.8396ZM42.5446 27.8396L41.1212 24.446C42.1889 22.7492 43.0665 22.6837 43.9682 24.446L42.5446 27.8396ZM42.5446 27.8396L39.3417 26.4821C38.0932 27.5425 38.3695 28.1367 39.3417 29.1971L42.5446 27.8396Z" stroke="black" stroke-width="1.15494"/>
<path d="M44.146 70.5012L49.0266 70.5012C47.0852 71.6388 46.7412 72.5605 46.5863 74.3797L49.84 72.8283C51.6196 74.018 51.713 74.6962 49.84 75.9311L46.5863 74.3797L48.2133 78.2581C47.1828 80.2722 46.1798 80.1973 44.9595 78.2581L46.5863 74.3797L42.9258 75.9311C41.4989 74.7193 41.8148 74.0401 42.9258 72.8283L46.5863 74.3797C46.2903 72.5602 45.8682 71.6595 44.146 70.5012Z" fill="black"/>
<path d="M46.5863 74.3797C46.7412 72.5605 47.0852 71.6388 49.0266 70.5012L44.146 70.5012C45.8682 71.6595 46.2903 72.5602 46.5863 74.3797ZM46.5863 74.3797L49.84 72.8283C51.6196 74.018 51.713 74.6962 49.84 75.9311L46.5863 74.3797ZM46.5863 74.3797L44.9595 78.2581C46.1798 80.1973 47.1828 80.2722 48.2133 78.2581L46.5863 74.3797ZM46.5863 74.3797L42.9258 75.9311C41.4989 74.7193 41.8148 74.0401 42.9258 72.8283L46.5863 74.3797Z" stroke="black" stroke-width="1.15494"/>
<path d="M4.34135 5.53232C4.82934 5.51991 5.29872 5.5075 5.7495 5.4951C5.93973 5.49096 6.13617 5.48683 6.33881 5.48269C6.54559 5.47442 6.74409 5.46822 6.93433 5.46408C7.1287 5.45994 7.31066 5.45788 7.48022 5.45788C7.65391 5.45374 7.80486 5.45167 7.93306 5.45167C8.06126 5.45167 8.16258 5.45167 8.23702 5.45167C8.3156 5.45167 8.35488 5.45581 8.35488 5.46408C8.35488 5.47235 8.35488 5.49923 8.35488 5.54472C8.35902 5.59021 8.36109 5.64604 8.36109 5.71221C8.36522 5.77838 8.36729 5.85282 8.36729 5.93553C8.37143 6.01824 8.37556 6.10302 8.3797 6.18987C8.38797 6.38837 8.39624 6.61376 8.40451 6.86603C8.27631 7.16792 8.14397 7.52358 8.0075 7.933C7.87516 8.34241 7.74489 8.77871 7.61669 9.24189C7.48849 9.70094 7.36442 10.1745 7.24449 10.6624C7.12456 11.1463 7.01497 11.6178 6.91571 12.0768C6.82059 12.5358 6.73788 12.968 6.66758 13.3733C6.59727 13.7786 6.54558 14.128 6.5125 14.4217L4.93686 14.3596C4.98235 14.0246 5.04438 13.6586 5.12296 13.2616C5.20567 12.8646 5.29872 12.4531 5.40211 12.0272C5.50963 11.6012 5.62749 11.167 5.75569 10.7245C5.8839 10.2778 6.01623 9.83741 6.15271 9.40318C6.29332 8.96481 6.43599 8.53885 6.58074 8.1253C6.72962 7.71174 6.87643 7.32094 7.02117 6.95287L4.34134 7.03972L4.34135 5.53232Z" fill="black"/>
<path d="M56.5009 84.6527C56.0129 84.6651 55.5436 84.6776 55.0928 84.69C54.9026 84.6941 54.7061 84.6982 54.5035 84.7024C54.2967 84.7106 54.0982 84.7168 53.908 84.721C53.7136 84.7251 53.5316 84.7272 53.3621 84.7272C53.1884 84.7313 53.0374 84.7334 52.9092 84.7334C52.781 84.7334 52.6797 84.7334 52.6053 84.7334C52.5267 84.7334 52.4874 84.7292 52.4874 84.721C52.4874 84.7127 52.4874 84.6858 52.4874 84.6403C52.4833 84.5948 52.4812 84.539 52.4812 84.4728C52.4771 84.4067 52.475 84.3322 52.475 84.2495C52.4709 84.1668 52.4667 84.082 52.4626 83.9952C52.4543 83.7967 52.446 83.5713 52.4378 83.319C52.566 83.0171 52.6983 82.6615 52.8348 82.2521C52.9671 81.8426 53.0974 81.4063 53.2256 80.9432C53.3538 80.4841 53.4779 80.0106 53.5978 79.5226C53.7177 79.0388 53.8273 78.5673 53.9266 78.1083C54.0217 77.6492 54.1044 77.217 54.1747 76.8118C54.245 76.4065 54.2967 76.057 54.3298 75.7634L55.9054 75.8254C55.8599 76.1604 55.7979 76.5264 55.7193 76.9234C55.6366 77.3204 55.5436 77.7319 55.4402 78.1579C55.3327 78.5838 55.2148 79.0181 55.0866 79.4606C54.9584 79.9072 54.8261 80.3476 54.6896 80.7819C54.549 81.2202 54.4063 81.6462 54.2615 82.0598C54.1127 82.4733 53.9659 82.8641 53.8211 83.2322L56.5009 83.1453L56.5009 84.6527Z" fill="black"/>
</svg>

<svg width="61" height="91" fill="none" xmlns="http://www.w3.org/2000/svg"><rect x=".39" y=".05" width="60.06" height="90.09" rx="4.62" fill="#fff"/><mask id="a" style="mask-type:alpha" maskUnits="userSpaceOnUse" x="1" y="1" width="58" height="87"><path d="M11.28 2.36h42.24a4.04 4.04 0 0 1 4.04 4.04v63.94c0 1.37-1.1 2.47-2.46 2.47-1.54 0-2.9.97-3.42 2.42l-2.26 6.4a2.65 2.65 0 0 0 .85 2.95 1.5 1.5 0 0 1-.94 2.67H6.32a4.04 4.04 0 0 1-4.04-4.18l2.04-62.85a2.94 2.94 0 0 1 2.95-2.85 4.1 4.1 0 0 0 4.1-4.1V8.23c0-.96-.46-1.87-1.23-2.44a1.9 1.9 0 0 1 1.14-3.42Z" fill="#C4C4C4" stroke="#000" stroke-width="1.15"/></mask><g mask="url(#a)"><rect x="6.17" y="5.25" width="49.66" height="79.69" rx="4.04" stroke="#000" stroke-width="1.15"/></g><path d="M16.7 19.68h-4.88c1.94-1.13 2.28-2.06 2.44-3.87L11 17.36c-1.78-1.2-1.87-1.87 0-3.1l3.26 1.55-1.63-3.88c1.03-2.02 2.03-1.94 3.25 0l-1.62 3.88 3.66-1.56c1.42 1.22 1.1 1.9 0 3.1l-3.66-1.54c.3 1.81.71 2.72 2.44 3.87Z" fill="#000"/><path d="M14.26 15.8c-.16 1.82-.5 2.75-2.44 3.88h4.88c-1.73-1.15-2.15-2.06-2.44-3.87Zm0 0L11 17.37c-1.78-1.2-1.87-1.87 0-3.1l3.26 1.55Zm0 0 1.62-3.87c-1.22-1.94-2.22-2.02-3.25 0l1.63 3.88Zm0 0 3.66-1.55c1.42 1.22 1.1 1.9 0 3.1l-3.66-1.54Z" stroke="#000" stroke-width="1.15"/><path d="M40.4 60.1h4.28c-1.7 1-2 1.8-2.14 3.4l2.85-1.36c1.56 1.04 1.64 1.64 0 2.72l-2.85-1.36 1.43 3.4c-.9 1.76-1.78 1.7-2.85 0l1.42-3.4-3.2 1.36c-1.25-1.06-.97-1.66 0-2.72l3.2 1.36c-.25-1.6-.62-2.38-2.13-3.4Z" fill="#000"/><path d="M42.54 63.5c.14-1.6.44-2.4 2.14-3.4h-4.27c1.5 1.02 1.88 1.8 2.13 3.4Zm0 0 2.85-1.36c1.56 1.04 1.64 1.64 0 2.72l-2.85-1.36Zm0 0-1.42 3.4c1.07 1.7 1.95 1.76 2.85 0l-1.43-3.4Zm0 0-3.2 1.36c-1.25-1.06-.97-1.66 0-2.72l3.2 1.36Z" stroke="#000" stroke-width="1.15"/><path d="M21.59 60.1h-4.27c1.7 1 2 1.8 2.13 3.4l-2.84-1.36c-1.56 1.04-1.64 1.64 0 2.72l2.84-1.36-1.42 3.4c.9 1.76 1.78 1.7 2.85 0l-1.43-3.4 3.2 1.36c1.25-1.06.98-1.66 0-2.72l-3.2 1.36c.26-1.6.63-2.38 2.14-3.4Z" fill="#000"/><path d="M19.45 63.5c-.13-1.6-.43-2.4-2.13-3.4h4.27c-1.5 1.02-1.88 1.8-2.14 3.4Zm0 0-2.84-1.36c-1.56 1.04-1.64 1.64 0 2.72l2.84-1.36Zm0 0 1.43 3.4c-1.07 1.7-1.95 1.76-2.85 0l1.42-3.4Zm0 0 3.2 1.36c1.25-1.06.98-1.66 0-2.72l-3.2 1.36Z" stroke="#000" stroke-width="1.15"/><path d="M40.4 41.63h4.28c-1.7 1-2 1.8-2.14 3.4l2.85-1.37c1.56 1.05 1.64 1.64 0 2.72l-2.85-1.36 1.43 3.4c-.9 1.76-1.78 1.7-2.85 0l1.42-3.4-3.2 1.36c-1.25-1.06-.97-1.66 0-2.72l3.2 1.36c-.25-1.6-.62-2.38-2.13-3.4Z" fill="#000"/><path d="M42.54 45.02c.14-1.59.44-2.4 2.14-3.4h-4.27c1.5 1.02 1.88 1.8 2.13 3.4Zm0 0 2.85-1.36c1.56 1.05 1.64 1.64 0 2.72l-2.85-1.36Zm0 0-1.42 3.4c1.07 1.7 1.95 1.76 2.85 0l-1.43-3.4Zm0 0-3.2 1.36c-1.25-1.06-.97-1.66 0-2.72l3.2 1.36Z" stroke="#000" stroke-width="1.15"/><path d="M33.14 40.47h-4.27c1.7-1 2-1.8 2.13-3.4l-2.85 1.37c-1.55-1.04-1.63-1.64 0-2.72L31 37.08l-1.42-3.4c.9-1.76 1.78-1.7 2.85 0L31 37.09l3.2-1.36c1.25 1.06.98 1.66 0 2.72L31 37.08c.26 1.6.63 2.38 2.14 3.4Z" fill="#000"/><path d="M31 37.08c-.13 1.6-.43 2.4-2.13 3.4h4.27c-1.51-1.02-1.88-1.8-2.14-3.4Zm0 0-2.85 1.36c-1.55-1.04-1.63-1.64 0-2.72L31 37.08Zm0 0 1.43-3.4c-1.07-1.7-1.95-1.76-2.85 0l1.42 3.4Zm0 0 3.2-1.36c1.25 1.06.98 1.66 0 2.72L31 37.08Z" stroke="#000" stroke-width="1.15"/><path d="M21.59 41.63h-4.27c1.7 1 2 1.8 2.13 3.4l-2.84-1.37c-1.56 1.05-1.64 1.64 0 2.72l2.84-1.36-1.42 3.4c.9 1.76 1.78 1.7 2.85 0l-1.43-3.4 3.2 1.36c1.25-1.06.98-1.66 0-2.72l-3.2 1.36c.26-1.6.63-2.38 2.14-3.4Z" fill="#000"/><path d="M19.45 45.02c-.13-1.59-.43-2.4-2.13-3.4h4.27c-1.5 1.02-1.88 1.8-2.14 3.4Zm0 0-2.84-1.36c-1.56 1.05-1.64 1.64 0 2.72l2.84-1.36Zm0 0 1.43 3.4c-1.07 1.7-1.95 1.76-2.85 0l1.42-3.4Zm0 0 3.2 1.36c1.25-1.06.98-1.66 0-2.72l-3.2 1.36Z" stroke="#000" stroke-width="1.15"/><path d="M21.59 31.23h-4.27c1.7-1 2-1.8 2.13-3.39l-2.84 1.36c-1.56-1.04-1.64-1.64 0-2.72l2.84 1.36-1.42-3.4c.9-1.76 1.78-1.7 2.85 0l-1.43 3.4 3.2-1.36c1.25 1.06.98 1.66 0 2.72l-3.2-1.36c.26 1.6.63 2.38 2.14 3.4Z" fill="#000"/><path d="M19.45 27.84c-.13 1.6-.43 2.4-2.13 3.4h4.27c-1.5-1.02-1.88-1.8-2.14-3.4Zm0 0-2.84 1.36c-1.56-1.04-1.64-1.64 0-2.72l2.84 1.36Zm0 0 1.43-3.4c-1.07-1.7-1.95-1.76-2.85 0l1.42 3.4Zm0 0 3.2-1.36c1.25 1.06.98 1.66 0 2.72l-3.2-1.36Z" stroke="#000" stroke-width="1.15"/><path d="M40.4 31.23h4.28c-1.7-1-2-1.8-2.14-3.39l2.85 1.36c1.56-1.04 1.64-1.64 0-2.72l-2.85 1.36 1.43-3.4c-.9-1.76-1.78-1.7-2.85 0l1.42 3.4-3.2-1.36c-1.25 1.06-.97 1.66 0 2.72l3.2-1.36c-.25 1.6-.62 2.38-2.13 3.4Z" fill="#000"/><path d="M42.54 27.84c.14 1.6.44 2.4 2.14 3.4h-4.27c1.5-1.02 1.88-1.8 2.13-3.4Zm0 0 2.85 1.36c1.56-1.04 1.64-1.64 0-2.72l-2.85 1.36Zm0 0-1.42-3.4c1.07-1.7 1.95-1.76 2.85 0l-1.43 3.4Zm0 0-3.2-1.36c-1.25 1.06-.97 1.66 0 2.72l3.2-1.36Z" stroke="#000" stroke-width="1.15"/><path d="M44.15 70.5h4.88c-1.94 1.14-2.29 2.06-2.44 3.88l3.25-1.55c1.78 1.19 1.87 1.87 0 3.1l-3.25-1.55 1.62 3.88c-1.03 2.01-2.03 1.94-3.25 0l1.63-3.88-3.66 1.55c-1.43-1.21-1.12-1.89 0-3.1l3.66 1.55c-.3-1.82-.72-2.72-2.44-3.88Z" fill="#000"/><path d="M46.59 74.38c.15-1.82.5-2.74 2.44-3.88h-4.88c1.72 1.16 2.14 2.06 2.44 3.88Zm0 0 3.25-1.55c1.78 1.19 1.87 1.87 0 3.1l-3.25-1.55Zm0 0-1.63 3.88c1.22 1.94 2.22 2.01 3.25 0l-1.62-3.88Zm0 0-3.66 1.55c-1.43-1.21-1.12-1.89 0-3.1l3.66 1.55Z" stroke="#000" stroke-width="1.15"/><path d="M4.34 5.53a679.38 679.38 0 0 0 3.6-.08h.3l.11.01v.08l.01.17v.23a107.11 107.11 0 0 1 .04.93c-.12.3-.26.65-.4 1.06a32.12 32.12 0 0 0-.76 2.73 48.48 48.48 0 0 0-.57 2.71l-.16 1.05-1.57-.06a18.54 18.54 0 0 1 .46-2.33 38.84 38.84 0 0 1 .75-2.63 51.26 51.26 0 0 1 .87-2.45l-2.68.09v-1.5ZM56.5 84.65a671.14 671.14 0 0 0-3.6.08h-.41v-.26l-.02-.22a108.2 108.2 0 0 1-.03-.93c.13-.3.26-.66.4-1.07a32.27 32.27 0 0 0 .76-2.73 48.63 48.63 0 0 0 .57-2.7c.07-.41.13-.76.16-1.06l1.58.07a18.53 18.53 0 0 1-.47 2.33 38.86 38.86 0 0 1-.75 2.62 51.18 51.18 0 0 1-.87 2.45l2.68-.08v1.5Z" fill="#000"/></svg>
